X: 372
T: Banish Misfortune
B: jims roots
M:6/8
L:1/8
R: Double Jig
Q: 3/8=100
K:DMaj
V:1 
de |: "D"fed "C"y{=cd}cAG | "D"Add "C"=cAG | "D"FDD DED | FEF y{GA}"C"GFG | A3 "C"y{=cd}cAG |
"D"AGA "C"=cde | "D"y{fg}fed "C"y{=cd}cAG | "D"Ad^c dde :||: [P:B Part]"D"fdd dcd | fdf agf |
"C"e=cc cBc | e=ce gfe | "D"fdd agf | "C"e=cc gfe | "D"fed "C"y{=cd}cAG |
"D"Ad^c dde :||: [P:C Part]"D"=f2g "(C)"e2f | "(D)"d2e "C"=c2d | "D"ABA "C"GAG | "D"FGE FED |
"C"=c3 y{cd}cAG | AGA =cde | "D"fed "C"=cAG |[1 A"D"d^c dde :|[2 A"D"d^c d3 |]
% abcbook-tune_id 6298c245eae203af2c94784c


% abcbook-boost 0
% abcbook-tablature 
% abcbook-transpose 
% abcbook-lastupdated 1654178373244
% abcbook-soundfonts 
% abcbook-repeats 1


